public/logo.svg

<svg width="170" height="170" viewBox="0 0 170 170" fill="none" xmlns="http://www.w3.org/2000/svg">
<ellipse cx="87.5" cy="85" rx="82.5" ry="85" fill="#171717"/>
<path fill-rule="evenodd" clip-rule="evenodd" d="M150.216 66.5645C151.858 72.6202 148.053 80.9324 137.335 89.7344C126.94 98.2716 111.231 106.177 92.653 111.215C74.0755 116.253 56.5238 117.367 43.2394 115.25C29.5437 113.069 22.0609 107.817 20.4188 101.762C18.7768 95.7059 22.5813 87.3938 33.2986 78.5918C34.492 77.6121 35.7554 76.6399 37.085 75.6805V70.7512C22.0553 80.8947 13.7854 92.7454 16.5172 102.819C21.1529 119.915 55.7137 125.42 93.7108 115.116C131.708 104.813 158.753 82.6013 154.117 65.5067C151.316 55.1772 137.59 49.0792 118.782 48.1431V52.1909C121.811 52.3482 124.692 52.6451 127.395 53.0756C141.09 55.2573 148.574 60.5088 150.216 66.5645Z" fill="white"/>
<path d="M85.654 114.482C102.213 114.482 115.636 101.059 115.636 84.5C115.636 67.9413 102.213 54.5178 85.654 54.5178C69.0953 54.5178 55.6718 67.9413 55.6718 84.5C55.6718 101.059 69.0953 114.482 85.654 114.482Z" stroke="white" stroke-width="6"/>
<path d="M85.654 91.9113C89.7472 91.9113 93.0654 88.5931 93.0654 84.5C93.0654 80.4068 89.7472 77.0886 85.654 77.0886C81.5608 77.0886 78.2427 80.4068 78.2427 84.5C78.2427 88.5931 81.5608 91.9113 85.654 91.9113Z" stroke="white" stroke-width="5"/>
<path d="M86.4581 92.6614L113.975 84.694" stroke="white" stroke-width="2.5"/>
<path d="M57.4865 83.9025L85.0033 75.9351" stroke="white" stroke-width="2.5"/>
<path d="M84.7958 114.191L77.7703 86.4187" stroke="white" stroke-width="2.5"/>
<path d="M94.2285 83.8718L87.203 56.0996" stroke="white" stroke-width="2.5"/>
<path d="M79.6508 79.8659L65.1609 105.137" stroke="white" stroke-width="2.5"/>
<path d="M106.601 64.3694L92.1114 89.6408" stroke="white" stroke-width="2.5"/>
<path d="M81.6937 91.5179L106.119 105.522" stroke="white" stroke-width="2.5"/>
<path d="M66.1972 63.8937L90.6223 77.8978" stroke="white" stroke-width="2.5"/>
<path d="M85.654 132C111.888 132 133.154 110.734 133.154 84.5C133.154 58.2665 111.888 37 85.654 37C59.4205 37 38.154 58.2665 38.154 84.5C38.154 110.734 59.4205 132 85.654 132Z" stroke="white" stroke-width="8"/>
</svg>

<?xml version="1.0" encoding="utf-8"?>
<!-- Generator: Adobe Illustrator 28.0.0, SVG Export Plug-In . SVG Version: 6.00 Build 0)  -->
<svg version="1.1" id="Layer_1" xmlns="http://www.w3.org/2000/svg" xmlns:xlink="http://www.w3.org/1999/xlink" x="0px" y="0px"
	 viewBox="0 0 170 170" style="enable-background:new 0 0 170 170;" xml:space="preserve">
<style type="text/css">
	.st0{fill-rule:evenodd;clip-rule:evenodd;fill:#FFFFFF;}
	.st1{fill:none;stroke:#FFFFFF;stroke-width:6;}
	.st2{fill:none;stroke:#FFFFFF;stroke-width:5;}
	.st3{fill:none;stroke:#FFFFFF;stroke-width:2.5;}
	.st4{fill:none;stroke:#FFFFFF;stroke-width:8;}
</style>
<path class="st0" d="M150.2,66.6c1.6,6.1-2.2,14.4-12.9,23.2c-10.4,8.5-26.1,16.4-44.7,21.5c-18.6,5-36.1,6.2-49.4,4
	c-13.7-2.2-21.2-7.4-22.8-13.5c-1.6-6.1,2.2-14.4,12.9-23.2c1.2-1,2.5-2,3.8-2.9v-4.9c-15,10.1-23.3,22-20.6,32.1
	c4.6,17.1,39.2,22.6,77.2,12.3c38-10.3,65-32.5,60.4-49.6c-2.8-10.3-16.5-16.4-35.3-17.4v4c3,0.2,5.9,0.5,8.6,0.9
	C141.1,55.3,148.6,60.5,150.2,66.6z"/>
<path class="st1" d="M85.7,114.5c16.6,0,30-13.4,30-30c0-16.6-13.4-30-30-30c-16.6,0-30,13.4-30,30
	C55.7,101.1,69.1,114.5,85.7,114.5z"/>
<path class="st2" d="M85.7,91.9c4.1,0,7.4-3.3,7.4-7.4c0-4.1-3.3-7.4-7.4-7.4s-7.4,3.3-7.4,7.4C78.2,88.6,81.6,91.9,85.7,91.9z"/>
<path class="st3" d="M86.5,92.7l27.5-8"/>
<path class="st3" d="M57.5,83.9l27.5-8"/>
<path class="st3" d="M84.8,114.2l-7-27.8"/>
<path class="st3" d="M94.2,83.9l-7-27.8"/>
<path class="st3" d="M79.7,79.9l-14.5,25.3"/>
<path class="st3" d="M106.6,64.4L92.1,89.6"/>
<path class="st3" d="M81.7,91.5l24.4,14"/>
<path class="st3" d="M66.2,63.9l24.4,14"/>
<path class="st4" d="M85.7,132c26.2,0,47.5-21.3,47.5-47.5c0-26.2-21.3-47.5-47.5-47.5c-26.2,0-47.5,21.3-47.5,47.5
	C38.2,110.7,59.4,132,85.7,132z"/>
</svg>
